X:090
U: ~ = !turn!
%%topmargin 3cm
T:The Hunter's Purse
B:Traditional Irish Fiddle Tunes. Randy Miller and Jack Perron.
Z:Transcribed by Ralph Palmer
R:Reel
M:C|
L:1/8
K:G
((3Bcd) | eAAB AGEF | GBAF {/A}GE D2 | cBcd eged | ((3Bcd) ef {/a}gedg|
eAAB AGEF | GBAF GE D2 | cBcd eged | ((3cBA) BG A2 ::
Bd | ea{/b}ag {/b}agef | gbaf gedB | cBcd eged | ((3Bcd) ef {/a}ge d2 |
ea{/b}ag {/b}agef | gbaf gedB | cBcd eged | cABG A2 :|]
